X:4
T:Alma Redemptoris Mater
T:Tenor I part
C:Tom\'as Luis de Victoria (1548-1611)
O:Florigelium sacrarum cantionum, Petri Phalesij, 1609
L:1/8
M:4/2
%%measurenb 0
%%squarebreve
%%scale 0.8
%%newpage 1
%%continueall true
%%footer "$T (Tenor I)	Page $P	Gumbleton Music, 2011\n"
K:F clef=alto
z8  z2 F4 E2 |DEFDEF G3 F F4 ED |E4 F4 z8|
w:Al ------------- ma
%7
z4 z2 C2  D4 E4 | F4 z4  z2 C4 C2 | F,G,A,F, B,2 B,2 C8|
w:Re-dem-pto-ris, Re-dem-pto ---- ris Ma-
%13
C4 A,4 B,3 B, C4 | D4 B,4  C4 D4 | C4 z4 z8 |
w:ter, quae per-vi-a coe --- li,
%19
z8  z2 C4 A,2 | G,4 F,4 z8 | z2 C2 D2 E2  FEFG A2 G2 |
w:port-ta ma-nes, por-ta ma ------
%25
F2 ED C3 B,A,G, C4 =B,2 | C2 E2 F2 G2 A4 G2 F2-|FEDC B,2 C2  D2 B,2 C4 |
w:---------nes, por-ta ma -----------nes.
%31
F4 E2 F2  D3 C/D/ E2 F2-|F2 E2 D4  E4 C4 | D4 C4 z4 C4-|
w: Et stel-la ma ----------ris, et
%37
C4 A,4  F,4 G,4 | F,4 z2 G,2  C4 C4 | z2 E2 F4 F2 E2 D2 C2 |
w:_ stel-la ma-ris suc-cur-re, suc-cur-re ca-den-ti,
%43
z4z2 F,2 B,4 B,2 A,2 | G,4 F,2 C2  F,2 G,2 A,2 F,2 | G,4 z4  z4 C3 C |
w:suc-cur-re ca-den-ti, ca-den --- ti. Sur-ge-
D4 E3 E  F2 F,2 B,CDE | F6 _E2 D2 D2 C4 | z2 F,4 F3 E D2 C2 F2-|
w:re, sur-ge-re qui cu ---- rat, po-pu-lo, qui cu -- rat, po-
FE/D/ E4 E2  F8||[Q:"Secunda pars"] Z2 |
w: ----pu-lo:
%61
z8  z4 C4-|C2 B,2 A,2 G,2  A,B,CA,B,C D2 | C2 F,2 C4  C4 z2 C2 |
w:Tu_ quae ge-nu-i --------- sti, na-
%67
C2 A,4 F,2  FEDC B,2 F,2 | C2 A,2 G,2 C2  C4 A,2 F,2 | F3 E D2 C2  C8 |
w:tu-ra mi-ran -------te, na-tu-ra mi-ran ----
%73
C8  C4 z4 | z2 C2 D2 F4 E2 F2 F,2 |B,4 C4  F,4 z2 G,2-|
w:- te, tu-um san- ctum Ge-ni-to - rem, Ge-
%79
G,2 G2 F3 EDC C4 =B,A, | =B,4 C4  z4 F4-|F4 F8 F4-|
w:- ni-to ------- rem, vir - go pri-
%85
F4 F4  z8|z8 z2 C4 D2 | E2 F3 EDC  B,2 C2 DCB,A, |
w:- us ac po-ste ----------
%91
B,2 B,2 CB,A,G, F,4 z2 D2-|D2 D2 E4  C2 F3 EDC |D4 C4  F,4 z4 |
w:- ri ---- us, Ga - bri-e-lis ab____ o-re.
%97
z8  F,8 | C8  D8 | z8  B,8 |
w:Su - mens il-
%103
C8  D3 CB,A, B,2-|B,2 G,2 C8 B,4 | B,3 A, G,2 F,2 B,3 A, G,2 A,2 |G,4 F,2 F2 \
w:lud A ------- ve, A -- ve, A ---- ve, pec-
%110
E2 D4 ^C2 | D2 F4 E2  D2 G,2 A,2 A2 |G2 F4 E2  D2 C4 B,2 |A,2 A4 D4 G3 FED |
w:ca-to - rum mi-se-re - re, mi-se-re ---- re, pec-ca- to --- 
%117
C3 B, A,2 G,2 A,2 F,2 G,4 |F,16-|F,16|]
w:- - - rum mi-se-re-re_

